X:1
T:Title
%%score { ( 1 4 ) | ( 2 3 ) }
L:1/8
M:4/4
K:G
V:1 treble nm="Grand Piano"
V:4 treble 
V:2 bass 
V:3 bass 
V:1
 z4 z2[Q:1/4=100] [B,D]2 | [DB]3 [B,D] [CE][DF][EG][^DA] | [DB]6 [DB]2 | %3
 [^DB]2 .[A,DF]2 [EG]2 [DA]2 |[M:3/4] G4 z2 |[M:1/4] F2 |[M:4/4] c3 D EFGA | B6 B2 | %8
 [Ad]3 [Ad] [Gd]2 [Gd]2 | [Gc]2 [Gc]2 [GB]3 [GB] |[M:9/8] [FA]2 [CFA]- [CFA] [B,G]2- [B,G] z z | %11
[M:4/4] [EG]2 [^DF][EG] [EA][EG][=DF][CE] |[M:3/4] [B,D]6 |[M:1/4] [B,D]2 | %14
[M:4/4] [DG]3 [DG] .[EA]2 [A,DF][CE] | [G,B,D]6 [G,B,D]2 | [G,DG]2 [G,D=F]2 [G,CE]3 [G,CE] | %17
 [A,^CA]2 [A,EG]2 [A,DF]3 [A,DF] | .[G,DG]2 G[EA] [DB]2 [CA]2 |[M:3/4] [B,G]6 |] %20
V:2
 z4 z2 [G,,G,]2 | [G,,G,]3 [G,,G,] [C,G,][C,G,][C,G,][C,G,] | [G,,G,]6 [G,,G,]2 | %3
 F,G, z B, [B,,B,]2 [B,,B,]2 |[M:3/4] [E,B,E]4 z2 |[M:1/4] [D,CD]2 | %6
[M:4/4] [D,A,D]3 [D,F,] [D,G,D][D,A,D][D,B,D][D,CD] | [G,D]6 [G,DG]2 | %8
 [F,D]3 [F,D] [=F,B,]2 [F,B,]2 | [E,C]2 [^D,C]2 [=D,D]3 [D,D] | %10
[M:9/8] [D,D]2 D,- D, G,,2- G,, z z |[M:4/4] [C,C]2 [C,C][C,C] [C,C][C,C][C,G,][C,G,] | %12
[M:3/4] [G,,G,]6 |[M:1/4] [G,,G,]2 |[M:4/4] [B,,G,]3 [B,,G,] z G z G, | G,,6 G,,2 | %16
 B,,2 B,,2 C,3 C, | A,,2 ^C,2 D,3 =C, | B,,[A,,F,][B,,G,][C,G,] [D,G,]2 [D,F,]2 | %19
[M:3/4] [G,,G,]6 |] %20
V:3
 x8 | x8 | x8 | B,,2 B,,2 z4 |[M:3/4] x6 |[M:1/4] x2 |[M:4/4] x8 | x8 | x8 | x8 |[M:9/8] x9 | %11
[M:4/4] x8 |[M:3/4] x6 |[M:1/4] x2 |[M:4/4] z4 [C,G,]2 C,2 | x8 | x8 | x8 | x8 |[M:3/4] x6 |] %20
V:4
 x8 | x8 | x8 | x8 |[M:3/4] x6 |[M:1/4] x2 |[M:4/4] x8 | x8 | x8 | x8 |[M:9/8] x9 |[M:4/4] x8 | %12
[M:3/4] x6 |[M:1/4] x2 |[M:4/4] x8 | x8 | x8 | x8 | z .D3 z4 |[M:3/4] x6 |] %20

